X: 126
T: Cantantibus organis – Allegro moderato
C: Franciszek Walczyński
%%abc-version 2.0
%%abcx-abcm2ps-target-version 5.9.1 (29 Sep 2008)
%%abc-creator hum2abc beta
%%abcx-conversion-date 2021/10/04 07:38:42
%%abc-edited-by Kamil Watkowski
%%abcx-initial-encoding-date 2021-08-09
%%humdrum-veritas 3265576275
%%humdrum-veritas-data 4292655949
%%linebreak <none>
%%barnumbers 0
L: 1/8
M: C|
N: Derived from pl-kozmzk--mzk-m-346--028_walczynski-franciszek--cantantibus-organis-allegro-moderato.krn
%%staves {1 2}
V: 1 clef=treble
V: 2 clef=bass
K: E
[V:1] edcB AGBA | 
[V:2] GFED CB,D2 & z8 | 
[V:1] G2AG FGFE | 
[V:2] ED CB,A,2^A,2 & z8 | 
[V:1] D4EFG2 & z4z DE2 | 
[V:2] B,CB,=A, G,B,-B,2 & z4z B,, E,=D, | 
[V:1] ABcB ^Aedc & E4F4 | 
[V:2] A,G,A,B,E4 & C,B,,A,,G,,F,,4 | 
[V:1] d2eB cB/A/G2 & B2>E2-E4- | 
[V:2] F2E2A,2B,^A, & B,,A,,G,,2A,,B,,/C,/B,,2- | 
[V:1] F2>G2E4 & E2D2E4 | 
[V:2] B,^A,=A,2G,4 & B,,4E,4 | 
[V:1] [D8F8] | 
[V:2] z B,^A,B, =CB,A,B, & z8 | 
[V:1] [E8G8] | 
[V:2] z B,^A,B, ^CB,A,B, & z8 | 
[V:1] [F8A8] | 
[V:2] z B,^A,B, CB,CD & z8 | 
[V:1] GABcB2d2 & EFGAG2A2 | 
[V:2] E6B,2 & z8 | 
[V:1] gfed edcB & G8- | 
[V:2] EDCB, CB,A,G, & E,8- | 
[V:1] edcB cBAG & G6FE | 
[V:2] CB,A,G, A,G,B,2 & E,6D,E, | 
[V:1] FGFGA2GF & E6D2 | 
[V:2] C6A,2 & A,,2>G,,2F,,2B,,2 | 
[V:1] GABcB2d2 & EFGAG2A2 | 
[V:2] B,6B,2 & E,6z2 | 
[V:1] gfef e=dcd & G8 | 
[V:2] E=DCD CB,B,2 & E,6^E,2 | 
[V:1] c2!accent!f2!accent!g2!accent!a2 & A2z2z4 | 
[V:2] A,2!accent!F2!accent!G2!accent!A2 & F,2z2z4 | 
[V:1] bgfe defd & B8- | 
[V:2] GEDC AGAF & B,8 | 
[V:1] e6z2 & [G6B6]x2 | 
[V:2] E2x6 & E2!accent!B,2!accent!G,2!accent!F,2 | 
[V:1] z8 & z8 | 
[V:2] z8 & .E,.D,.C,.B,, .A,,.G,,F,,E,,- | 
[V:1] z GAEG2G2 & x2<E2E4 | 
[V:2] z B,!accent!=C2B,4 & !accent!E,,8- | 
[V:1] !accent!=c2!accent!c4c2 & [D8A8] | 
[V:2] E,,8- | 
[V:1] !fermata![E8G8B8] |]  
[V:2] !fermata!E,,8 |]  


